X: 33785
T: Rawgabbit, The
R: jig
M: 6/8
K: Gmajor
D|:GFG BAG|FED cBA|BdB cAG|FAF DEF|GFG BAG|
FED cBA|1 BdB cAF|AGF G2D:|2 BdB cec|fef g2d||
|:gfg bag|fed cAF|GFG BdB|cag fed|
gfg bag|fed ^cde|gdB gdB|1 AGF G2d:|2 AGF G2D||

